X: 725
T: Baowei hao shiguang
L: 1/8
M: 4/4
K: F
F F E D F CC2 [I:setbarnb 1]| 
A c d fc4 | 
A cd2dc2A | 
c A G AG4 | 
c A D FG2G A | 
c A c dF4 | 
D FG2AG2D | 
F D C DC4 | 
c A D FG2G A | 
c A c dF4 | 
D FG2AG2D | 
F D C DC4 |]

@@@ Tune index: 9599
